svg/fluentui-system-icons/ic_fluent_clipboard_text_edit_32_filled.svg

<svg width="32" height="32" viewBox="0 0 32 32" fill="none" xmlns="http://www.w3.org/2000/svg">
<path d="M23.5 4H21.8293C21.4175 2.83481 20.3062 2 19 2H13C11.6938 2 10.5825 2.83481 10.1707 4H8.5C6.567 4 5 5.567 5 7.5V26.5C5 28.433 6.567 30 8.5 30H14.0457C13.9728 29.6436 13.9774 29.261 14.0784 28.871L14.869 25.8196C15.0459 25.1369 15.3933 24.5109 15.8781 24H11C10.4477 24 10 23.5523 10 23C10 22.4477 10.4477 22 11 22H17.8605L24.5124 15.2938C25.2119 14.5886 26.0898 14.1721 27 14.0422V7.5C27 5.567 25.433 4 23.5 4ZM13 4H19C19.5523 4 20 4.44772 20 5C20 5.55228 19.5523 6 19 6H13C12.4477 6 12 5.55228 12 5C12 4.44772 12.4477 4 13 4ZM10 13C10 12.4477 10.4477 12 11 12H21C21.5523 12 22 12.4477 22 13C22 13.5523 21.5523 14 21 14H11C10.4477 14 10 13.5523 10 13ZM11 17H16C16.5523 17 17 17.4477 17 18C17 18.5523 16.5523 19 16 19H11C10.4477 19 10 18.5523 10 18C10 17.4477 10.4477 17 11 17ZM29.6519 20.4246L21.0388 28.9677C20.687 29.3166 20.2488 29.5655 19.769 29.6891L16.7482 30.4666C16.0105 30.6565 15.3399 29.9848 15.5309 29.2474L16.3215 26.1959C16.4395 25.7405 16.6762 25.3244 17.0076 24.9904L25.5778 16.3503C26.7267 15.192 28.6073 15.218 29.7238 16.4076C30.7915 17.5452 30.7596 19.3259 29.6519 20.4246Z" fill="#212121"/>
</svg>

<svg xmlns="http://www.w3.org/2000/svg" width="32" height="32"><path d="M23.5 4h-1.67A3.001 3.001 0 0 0 19 2h-6a3.001 3.001 0 0 0-2.83 2H8.5A3.5 3.5 0 0 0 5 7.5v19A3.5 3.5 0 0 0 8.5 30h5.546a2.49 2.49 0 0 1 .032-1.129l.791-3.051a4.159 4.159 0 0 1 1.01-1.82H11a1 1 0 1 1 0-2h6.86l6.652-6.706A4.36 4.36 0 0 1 27 14.042V7.5A3.5 3.5 0 0 0 23.5 4ZM13 4h6a1 1 0 1 1 0 2h-6a1 1 0 1 1 0-2Zm-3 9a1 1 0 0 1 1-1h10a1 1 0 1 1 0 2H11a1 1 0 0 1-1-1Zm1 4h5a1 1 0 1 1 0 2h-5a1 1 0 1 1 0-2Zm18.652 3.425-8.613 8.543c-.352.349-.79.598-1.27.721l-3.02.778a1 1 0 0 1-1.218-1.22l.79-3.051c.118-.456.355-.872.687-1.206l8.57-8.64a2.88 2.88 0 1 1 4.074 4.075Z"/></svg>
